X:13
T:Paddy On the Handcar
M:4/4
L:1/8
B:Complete Tractor, p.143
C:Arr. Stuart Williams
%Pretty sure we play different chords than this. Check a recording.
Z:abc-transcription Josh Larios <hades@elsewhere.org>, 2014.01.13
K:A dor
|:"Am"E2A2A3B | c2 AB cB AG | "C"E2G2G3D | ED EG AG ED | "Am"E2A2A3B | cB AB cB cd |
"Am"ed ef gf ed | B2A2A4 :: "Am"e2a2a3g | ed ef gf ed | "G"B2g2g3A |
"G"BA Bd ed BA | "Am"e2a2a3g | ed ef gf ed | "Am"ed ef gf ed | B2A2A4 :|

